svg/UnitedNationsOCHA-Humanitarian/disaster_conflict_icon_box.svg

<svg xmlns="http://www.w3.org/2000/svg" viewBox="0 0 32 32" enable-background="new 0 0 32 32"><path fill="#407cca" d="m25.6 0h-19.2c-3.52 0-6.4 2.88-6.4 6.4v19.2c0 3.52 2.88 6.4 6.4 6.4h19.2c3.521 0 6.4-2.88 6.4-6.4v-19.2c0-3.52-2.88-6.4-6.4-6.4m1.429 21.16l-5.776-.586 2.625 7.285-5.259-5.438-1.633 3.159-1.582-3.95-6.114 5.109 2.056-7.271-2.898.53 1.792-1.846-6.24-3.646 6.897.481c-.73-1.505-2.035-4-2.035-4l4.305.957-1.526-7.803 4.831 6.225 1.778-4.609 1.177 4.94 4.224-4.374-1.608 6.933 5.957.631-6.17 3.952 5.199 3.324"/></svg>

<?xml version="1.0" encoding="utf-8"?>
<!-- Generator: Adobe Illustrator 16.0.3, SVG Export Plug-In . SVG Version: 6.00 Build 0)  -->
<!DOCTYPE svg PUBLIC "-//W3C//DTD SVG 1.1//EN" "http://www.w3.org/Graphics/SVG/1.1/DTD/svg11.dtd">
<svg version="1.1" id="Layer_1" xmlns="http://www.w3.org/2000/svg" xmlns:xlink="http://www.w3.org/1999/xlink" x="0px" y="0px"
	 width="32px" height="32px" viewBox="0 0 32 32" enable-background="new 0 0 32 32" xml:space="preserve">
<path fill="#407CCA" d="M25.6,0H6.4C2.88,0,0,2.88,0,6.4v19.2C0,29.12,2.88,32,6.4,32h19.2c3.521,0,6.4-2.88,6.4-6.4V6.4
	C32,2.88,29.12,0,25.6,0z M27.029,21.162l-5.776-0.586l2.625,7.285l-5.259-5.438l-1.633,3.159l-1.582-3.95l-6.114,5.109l2.056-7.271
	L8.448,20l1.792-1.846L4,14.508l6.897,0.481c-0.73-1.505-2.035-4.003-2.035-4.003l4.305,0.957l-1.526-7.803l4.831,6.225l1.778-4.609
	l1.177,4.94l4.224-4.374l-1.608,6.933L28,13.886l-6.17,3.952L27.029,21.162z"/>
</svg>
